src/lib/packages/icons/src/assets/filled/face-mask.svg

<svg width="24" height="24" viewBox="0 0 24 24" fill="none" xmlns="http://www.w3.org/2000/svg">
<path d="M3.53998 11.17L6.41998 13.24L10.88 11C11.58 10.65 12.42 10.65 13.12 11L17.58 13.23L20.46 11.17L21.83 10.19C20.98 5.53 16.9 2 12 2C7.1 2 3.01998 5.54 2.16998 10.19L3.53998 11.17ZM13.29 8.75999C13.6 7.85999 14.45 7.25 15.41 7.25C16.37 7.25 17.22 7.84999 17.53 8.75999C17.66 9.14999 17.46 9.58001 17.07 9.71001C16.99 9.74001 16.91 9.75 16.82 9.75C16.51 9.75 16.22 9.56001 16.11 9.24001C16.01 8.95001 15.72 8.75 15.41 8.75C15.1 8.75 14.81 8.95001 14.71 9.24001C14.58 9.63001 14.15 9.84 13.76 9.7C13.37 9.56 13.16 9.14 13.3 8.75L13.29 8.75999ZM6.46997 8.75999C6.77997 7.85999 7.63003 7.25 8.59003 7.25C9.55003 7.25 10.4 7.84999 10.71 8.75999C10.84 9.14999 10.64 9.58001 10.25 9.71001C10.17 9.74001 10.09 9.75 10 9.75C9.69 9.75 9.39998 9.56001 9.28998 9.24001C9.18998 8.95001 8.90003 8.75 8.59003 8.75C8.28003 8.75 7.99001 8.95001 7.89001 9.24001C7.76001 9.63001 7.33 9.84 6.94 9.7C6.55 9.56 6.33998 9.14 6.47998 8.75L6.46997 8.75999ZM13 17.25C13.41 17.25 13.75 17.59 13.75 18C13.75 18.41 13.41 18.75 13 18.75H11C10.59 18.75 10.25 18.41 10.25 18C10.25 17.59 10.59 17.25 11 17.25H13ZM22 11.92C22 11.92 22 11.97 22 12C22 15.31 20.39 18.25 17.9 20.07C16.25 21.28 14.21 22 12 22C9.79 22 7.74998 21.28 6.09998 20.07C3.60998 18.25 2 15.31 2 12C2 11.97 2 11.95 2 11.92L3.57001 13.04L5.58002 14.48C5.58002 14.57 5.56001 14.65 5.57001 14.74L5.87 17.77C5.87 17.84 5.91002 17.91 5.96002 17.96C6.28002 18.29 6.61999 18.59 6.98999 18.86C8.44999 19.93 10.18 20.5 12 20.5C13.82 20.5 15.55 19.93 17.01 18.86C17.38 18.59 17.72 18.29 18.04 17.96C18.09 17.91 18.12 17.84 18.13 17.77L18.43 14.74C18.44 14.65 18.42 14.57 18.42 14.48L20.43 13.04L22 11.92Z" fill="currentColor"/>
</svg>

<svg xmlns="http://www.w3.org/2000/svg" width="24" height="24" fill="none"><path fill="currentColor" d="m3.54 11.17 2.88 2.07L10.88 11c.7-.35 1.54-.35 2.24 0l4.46 2.23 2.88-2.06 1.37-.98C20.98 5.53 16.9 2 12 2s-8.98 3.54-9.83 8.19l1.37.98Zm9.75-2.41c.31-.9 1.16-1.51 2.12-1.51.96 0 1.81.6 2.12 1.51a.748.748 0 0 1-.71.99c-.31 0-.6-.19-.71-.51a.747.747 0 0 0-.7-.49c-.31 0-.6.2-.7.49a.74.74 0 0 1-.95.46.744.744 0 0 1-.46-.95l-.01.01Zm-6.82 0c.31-.9 1.16-1.51 2.12-1.51.96 0 1.81.6 2.12 1.51a.748.748 0 0 1-.71.99c-.31 0-.6-.19-.71-.51a.747.747 0 0 0-1.4 0 .74.74 0 0 1-.95.46.744.744 0 0 1-.46-.95l-.01.01ZM13 17.25c.41 0 .75.34.75.75s-.34.75-.75.75h-2c-.41 0-.75-.34-.75-.75s.34-.75.75-.75h2Zm9-5.33V12c0 3.31-1.61 6.25-4.1 8.07A9.946 9.946 0 0 1 12 22c-2.21 0-4.25-.72-5.9-1.93A9.975 9.975 0 0 1 2 12v-.08l1.57 1.12 2.01 1.44c0 .09-.02.17-.01.26l.3 3.03c0 .07.04.14.09.19.32.33.66.63 1.03.9A8.417 8.417 0 0 0 12 20.5c1.82 0 3.55-.57 5.01-1.64.37-.27.71-.57 1.03-.9.05-.05.08-.12.09-.19l.3-3.03c.01-.09-.01-.17-.01-.26l2.01-1.44L22 11.92Z"/></svg>
